X: 1
T: Polska till Fred
C: Agneta Wiberg
R: Senpolska, hambo, polska
S: http://www.nyckelharpa.org/archive/written-music/american-allspel-list/ 2022/10/_
Z: 2022 John Chambers <jc:trillian.mit.edu>
M: 3/4
L: 1/8
Q: 1/4=84
K: G
"^A"[|] |:\
(D>G) (B>A) G>F | (E>D) E2 E>E | (E>G) (cB) A>G |[1,3 (F<E) D4 :|2,4 (F<A) G4 :|
"^B"|:\
({B}d>B) (G>B) d>B | (c>A) (F>A) c>A |[1,3 B>G D<G B>G | (A<F) D4 :|[2,4 B>G E<G c>B | (A<F) G4 :|
